X: 2
T: Merrily Kissed The Quaker
R: slide
M: 12/8
L: 1/8
K: Gmaj
GAB DED ~c2A BGE|GAB DED ~A2B AGE|
GAB DED ~c2A BGE|GAB DED ~G3 G3:|
|:G2B ~d3 edB d2B|G2B d2B ~A3 AGE|
~G2B ~d3 edB d2B|GAB ~D3 ~G3 G2D:|
|:~G2B d2d edB ~g2e|dBA GBd ~e2f g2g|
ged BAB d2B AGE|GAB DED ~G3 G2D:|


Tune 70	Setting 12538

